svg/700/rounded/move_selection_down.svg

<svg xmlns="http://www.w3.org/2000/svg" width="48" height="48" viewBox="0 -960 960 960"><path d="M314-55q-38.75 0-66.375-27.1T220-149v-333q0-40.213 27.625-67.606Q275.25-577 314-577h333q40.213 0 67.606 27.394Q742-522.213 742-482v333q0 39.8-27.394 66.9Q687.213-55 647-55H314Zm333-427H314v333h333v-333Zm47.325-165Q674-647 660.5-660.675q-13.5-13.676-13.5-33.5Q647-714 660.675-727.5q13.676-13.5 34-13.5Q715-741 728.5-727.325q13.5 13.676 13.5 33.5Q742-674 728.325-660.5q-13.676 13.5-34 13.5Zm0-164Q674-811 660.5-824.675 647-838.351 647-858.088q0-19.737 13.675-33.824 13.676-14.088 34-14.088Q715-906 728.5-891.737q13.5 14.263 13.5 34Q742-838 728.325-824.5q-13.676 13.5-34 13.5Zm-213.5 0Q461-811 447.5-824.675 434-838.351 434-858.088q0-19.737 13.675-33.824Q461.351-906 481.175-906 501-906 514.5-891.737q13.5 14.263 13.5 34Q528-838 514.325-824.5q-13.676 13.5-33.5 13.5Zm-214 0Q247-811 233.5-824.675 220-838.351 220-858.088q0-19.737 13.675-33.824Q247.351-906 267.175-906 287-906 300.5-891.737q13.5 14.263 13.5 34Q314-838 300.325-824.5q-13.676 13.5-33.5 13.5Zm0 164Q247-647 233.5-660.675q-13.5-13.676-13.5-33.5Q220-714 233.675-727.5q13.676-13.5 33.5-13.5Q287-741 300.5-727.325q13.5 13.676 13.5 33.5Q314-674 300.325-660.5q-13.676 13.5-33.5 13.5ZM481-316Z"/></svg>

<svg xmlns="http://www.w3.org/2000/svg" width="48" height="48" viewBox="0 -960 960 960"><path d="M314-55q-38.75 0-66.37-27.1Q220-109.2 220-149v-333q0-40.21 27.63-67.61Q275.25-577 314-577h333q40.21 0 67.61 27.39Q742-522.21 742-482v333q0 39.8-27.39 66.9Q687.21-55 647-55H314Zm333-427H314v333h333v-333Zm47.32-165q-20.32 0-33.82-13.68-13.5-13.67-13.5-33.5 0-19.82 13.68-33.32 13.67-13.5 34-13.5 20.32 0 33.82 13.68 13.5 13.67 13.5 33.5 0 19.82-13.68 33.32-13.67 13.5-34 13.5Zm0-164q-20.32 0-33.82-13.68-13.5-13.67-13.5-33.41 0-19.73 13.68-33.82 13.67-14.09 34-14.09 20.32 0 33.82 14.26 13.5 14.27 13.5 34 0 19.74-13.68 33.24-13.67 13.5-34 13.5Zm-213.5 0q-19.82 0-33.32-13.68-13.5-13.67-13.5-33.41 0-19.73 13.68-33.82Q461.35-906 481.18-906q19.82 0 33.32 14.26 13.5 14.27 13.5 34 0 19.74-13.68 33.24-13.67 13.5-33.5 13.5Zm-214 0q-19.82 0-33.32-13.68-13.5-13.67-13.5-33.41 0-19.73 13.68-33.82Q247.35-906 267.18-906q19.82 0 33.32 14.26 13.5 14.27 13.5 34 0 19.74-13.68 33.24-13.67 13.5-33.5 13.5Zm0 164q-19.82 0-33.32-13.68-13.5-13.67-13.5-33.5 0-19.82 13.68-33.32 13.67-13.5 33.5-13.5 19.82 0 33.32 13.68 13.5 13.67 13.5 33.5 0 19.82-13.68 33.32-13.67 13.5-33.5 13.5ZM481-316Z"/></svg>
